X: 17501
T: Hills Of Glenorchy, The
R: jig
M: 6/8
K: Edorian
|:d|B2 E EFE|BAB d2 B|AFD DED|AFA d2 d|
B2 E EFE|BAB d2 e|dBd AFD|EFE E2:|
|:d|efe edB|efg gfe|ded dAB|def fed|
gbg faf|ege BdB|dBd AFD|EFE E2:|

